resources/vectors/tk_energy.svg

<?xml version="1.0" encoding="UTF-8"?><svg id="a" xmlns="http://www.w3.org/2000/svg" width="192" height="192" viewBox="0 0 192 192"><defs><style>.d{fill:none;}.d,.e,.f{stroke-width:0px;}.e{fill:#fff;}.f{fill:#54688c;}</style></defs><g id="b"><g id="c"><circle class="f" cx="96" cy="96" r="88"/><path class="e" d="m62.36,63.05c25.91-26.3,65.22-14.95,76.55,15.23h-17.76c-10.21-15.73-33.29-20.19-49.13-2.31l-9.65-12.91Z"/><path class="e" d="m74.13,110.47h46.87c2.49-4.1,3.34-8.96,3.6-14.4h-39.56l-10.91,14.4Z"/><path class="e" d="m141.59,110.47h4.31l10.19-14.4h-12.01c-.14,4.89-.81,9.51-2,14.4h-.48Z"/><polygon class="e" points="74.13 79.97 145.56 79.97 155.75 94.38 85.04 94.38 74.13 79.97"/><path class="e" d="m142.07,96.07v.07c0,42.86-50.05,63.48-79.69,33l9.5-12.81c20.2,23.38,54.46,8.7,54.46-20.01,0-.08,0-.17,0-.25h15.73Z"/><path class="d" d="m119.98,75.96c-15.84-17.88-38.92-13.42-49.13,2.31h-17.76c11.33-30.18,50.64-41.52,76.55-15.23l-9.65,12.91Z"/><path class="d" d="m106.96,96.07h-39.56c.26,5.44,1.11,10.3,3.6,14.4h46.87s-10.91-14.4-10.91-14.4Z"/><path class="d" d="m49.93,110.47c-1.19-4.89-1.86-9.51-2-14.4h-12.01s10.19,14.4,10.19,14.4h4.31s-.48,0-.48,0Z"/><polygon class="d" points="106.96 94.38 36.25 94.38 46.44 79.97 117.87 79.97 106.96 94.38"/><path class="d" d="m65.66,96.08c0,.08,0,.17,0,.25,0,28.71,34.26,43.39,54.46,20.01l9.5,12.81c-29.63,30.48-79.69,9.86-79.69-33v-.07h15.73Z"/></g></g></svg>

<?xml version="1.0" encoding="UTF-8" standalone="no"?>
<svg
   id="a"
   width="192"
   height="192"
   viewBox="0 0 192 192"
   version="1.1"
   sodipodi:docname="tk_energy.svg"
   xml:space="preserve"
   inkscape:version="1.2.2 (b0a8486541, 2022-12-01)"
   inkscape:export-filename="tk_energy.png"
   inkscape:export-xdpi="96"
   inkscape:export-ydpi="96"
   xmlns:inkscape="http://www.inkscape.org/namespaces/inkscape"
   xmlns:sodipodi="http://sodipodi.sourceforge.net/DTD/sodipodi-0.dtd"
   xmlns="http://www.w3.org/2000/svg"
   xmlns:svg="http://www.w3.org/2000/svg"><sodipodi:namedview
     id="namedview31"
     pagecolor="#505050"
     bordercolor="#eeeeee"
     borderopacity="1"
     inkscape:showpageshadow="0"
     inkscape:pageopacity="0"
     inkscape:pagecheckerboard="0"
     inkscape:deskcolor="#d1d1d1"
     showgrid="false"
     inkscape:zoom="1.7383042"
     inkscape:cx="18.408746"
     inkscape:cy="116.49285"
     inkscape:window-width="1884"
     inkscape:window-height="1055"
     inkscape:window-x="36"
     inkscape:window-y="0"
     inkscape:window-maximized="1"
     inkscape:current-layer="a" /><defs
     id="defs4"><style
       id="style2">.d{fill:none;}.d,.e,.f{stroke-width:0px;}.e{fill:#fff;}.f{fill:#54688c;}</style></defs><circle
     class="f"
     cx="96"
     cy="96"
     r="88"
     id="circle6" /><g
     id="g22046"
     transform="matrix(0.76586639,0,0,0.76586639,18.348244,22.47704)"><path
       class="e"
       d="M 62.36,63.05 C 88.27,36.75 127.58,48.1 138.91,78.28 H 121.15 C 110.94,62.55 87.86,58.09 72.02,75.97 L 62.37,63.06 Z"
       id="path8" /><path
       class="e"
       d="M 74.13,110.47 H 121 c 2.49,-4.1 3.34,-8.96 3.6,-14.399998 H 85.04 Z"
       id="path16160" /><path
       class="e"
       d="m 141.59,110.47 h 4.31 L 156.09,96.070002 H 144.08 C 143.94,100.96 143.27,105.58 142.08,110.47 h -0.48 z"
       id="path16162" /><polygon
       class="e"
       points="85.04,94.38 74.13,79.97 145.56,79.97 155.75,94.38 "
       id="polygon16164" /><path
       class="e"
       d="m 142.07,96.070002 v 0.07 C 142.07,139 92.02,159.62 62.38,129.14 l 9.5,-12.81 c 20.2,23.38 54.46,8.7 54.46,-20.009998 0,-0.08 0,-0.17 0,-0.25 z"
       id="path16166" /><path
       class="d"
       d="M 106.96,96.070002 H 67.4 C 67.66,101.51 68.51,106.37 71,110.47 h 46.87 c 0,0 -10.91,-14.399998 -10.91,-14.399998 z"
       id="path16168" /></g></svg>
